img/gianni.svg

<svg fill="none" height="810" viewBox="0 0 304 810" width="304" xmlns="http://www.w3.org/2000/svg"><path d="m101.634 705.885c-10.3127-9.131-15.469-18.369-15.469-27.715 0-5.156 1.3965-9.131 4.1895-11.924 2.793-2.9 5.8545-4.35 9.1846-4.35 7.0899 0 10.6349 3.222 10.6349 9.667 0 3.545-2.202 6.607-6.607 9.185-4.0817 2.363-6.1227 4.834-6.1227 7.412 0 4.082 2.7927 8.594 8.3787 13.535 8.809-5.586 18.155-8.379 28.037-8.379 12.891 0 24.278 4.62 34.161 13.858 9.99 9.238 15.361 24.814 16.113 46.728.752 22.774 5.371 34.16 13.857 34.16 3.975 0 6.768-2.578 8.379-7.734 1.719-5.049 3.008-15.683 3.867-31.904.86-17.725 2.525-31.367 4.995-40.928 2.364-9.56 7.198-17.187 14.502-22.881 7.305-5.693 16.006-8.54 26.104-8.54 14.18 0 25.62 5.801 34.321 17.403 8.701 11.601 13.052 28.305 13.052 50.112 0 19.98-3.867 35.986-11.602 48.017-7.734 12.032-17.509 18.047-29.326 18.047-6.553 0-11.924-1.718-16.113-5.156-4.19-3.437-6.284-8.325-6.284-14.663 0-1.719.268-3.276.805-4.673 7.305 6.66 15.039 9.99 23.204 9.99 9.453 0 17.241-4.404 23.364-13.213 6.23-8.916 9.345-22.182 9.345-39.799 0-15.684-3.168-27.876-9.506-36.578-6.231-8.808-14.234-13.212-24.009-13.212-10.742 0-18.316 3.921-22.72 11.762-4.297 7.842-6.875 21.807-7.734 41.895-.967 23.096-3.814 38.081-8.54 44.956-4.619 6.875-10.581 10.312-17.886 10.312-14.072 0-22.935-9.829-26.587-29.487-6.016 10.205-12.891 17.886-20.625 23.042s-16.382 7.734-25.942 7.734c-13.428 0-24.815-5.263-34.1605-15.791-9.4531-10.634-14.1797-23.203-14.1797-37.705 0-17.939 5.6397-32.334 16.9192-43.183zm35.127 72.51c13.857 0 24.009-2.847 30.454-8.541 6.445-5.693 9.668-12.944 9.668-21.752 0-8.165-3.169-15.147-9.507-20.948-6.445-5.908-17.564-8.862-33.355-8.862-15.898 0-26.855 3.115-32.871 9.346-6.0152 6.23-9.0231 13.266-9.023 21.108 0 9.883 3.706 17.295 11.118 22.236 7.412 4.942 18.584 7.413 33.516 7.413zm-119.3997-136.158c-4.6191 0-8.59373-1.611-11.92381-4.834-3.33008-3.33-4.995115-7.304-4.995116-11.924 0-4.619 1.665036-8.54 4.995116-11.762 3.33008-3.223 7.30471-4.834 11.92381-4.834 4.7266 0 8.7549 1.611 12.085 4.834 3.3301 3.222 4.9951 7.143 4.9951 11.762 0 4.62-1.665 8.594-4.9951 11.924-3.3301 3.223-7.3584 4.834-12.085 4.834zm67.3535-31.098h92.0072c14.072 0 22.934-.215 26.587-.645 3.652-.43 6.445-1.987 8.378-4.673 1.934-2.685 2.901-7.466 2.901-14.341v-3.383h7.412v71.059h-7.412v-5.478c0-7.627-1.074-12.569-3.223-14.824-2.256-2.364-4.887-3.707-7.895-4.029-3.116-.429-12.032-.644-26.748-.644h-39.961c-15.469 0-24.922.752-28.36 2.256-3.437 1.396-5.586 3.33-6.445 5.8-.859 2.364-1.289 6.553-1.289 12.569v4.35h-7.4121c-1.9336-19.121-4.7803-33.945-8.5401-44.472zm113.1152-174.668v-5.962c18.369.967 27.554 9.99 27.554 27.07 0 7.305-1.934 13.106-5.801 17.402-3.867 4.19-9.614 6.929-17.241 8.218 7.627 10.742 13.374 20.572 17.241 29.488 3.867 8.808 5.801 16.704 5.801 23.686 0 8.916-2.578 16.597-7.735 23.042-5.156 6.445-11.977 9.668-20.463 9.668-11.065 0-20.733-5.371-29.004-16.113-8.272-10.85-16.328-25.782-24.17-44.795l-10.152-24.976h-6.445c-9.131 0-15.737.591-19.819 1.773-4.082 1.181-7.7347 4.243-10.9573 9.184-3.2227 4.942-4.834 11.441-4.834 19.497 0 16.114 5.3711 25.083 16.1133 26.91 10.957 1.718 16.436 6.23 16.436 13.535 0 6.552-3.116 9.829-9.346 9.829-6.123 0-12.676-4.351-19.6584-13.052-7.0898-8.701-10.6348-22.236-10.6348-40.605 0-13.643 2.1485-24.224 6.4453-31.744 4.2969-7.519 9.1849-12.461 14.6629-14.824 5.479-2.471 13.858-3.706 25.137-3.706h53.335c12.461 0 20.464-.644 24.009-1.934 3.545-1.289 5.317-4.082 5.317-8.378 0-7.09-5.264-11.495-15.791-13.213zm-56.396 46.728 7.089 17.564c11.28 27.715 25.459 41.572 42.539 41.572 6.768 0 12.247-1.773 16.436-5.317 4.082-3.545 6.123-8.164 6.123-13.858 0-5.049-1.665-10.903-4.995-17.563s-8.325-14.126-14.985-22.398zm-56.7192-101.513v-4.351c6.6602-2.471 15.7372-3.867 27.2312-4.189-9.131-7.735-15.9519-15.845-20.4636-24.332-4.5117-8.486-6.7676-17.348-6.7676-26.586 0-10.528 2.2022-19.122 6.6065-25.782 4.4043-6.767 9.8287-11.118 16.2747-13.051 6.338-1.934 15.63-2.901 27.876-2.901h41.25c15.254 0 24.546-.268 27.876-.806 3.33-.537 5.854-2.202 7.573-4.995 1.611-2.9 2.417-8.164 2.417-15.791h7.412v67.515h-7.412v-3.062c0-7.734-1.128-12.783-3.384-15.146s-4.888-3.706-7.895-4.028c-3.008-.323-11.871-.484-26.587-.484h-42.539c-10.42 0-17.832.537-22.237 1.612-4.511.966-8.486 3.706-11.924 8.217-3.4371 4.405-5.1558 10.044-5.1558 16.919 0 7.842 2.3633 15.362 7.0898 22.559 4.619 7.09 11.602 13.804 20.947 20.142h53.819c15.254 0 24.546-.269 27.876-.806 3.33-.645 5.854-2.363 7.573-5.156 1.611-2.901 2.417-8.218 2.417-15.953h7.412v66.709h-7.412c0-7.412-.752-12.568-2.256-15.468-1.504-2.901-3.76-4.673-6.768-5.318-3.115-.752-12.729-1.128-28.842-1.128h-39.317c-15.361 0-24.653.323-27.876.967-3.33.537-5.801 2.256-7.412 5.156-1.719 2.793-2.578 8.057-2.578 15.791h-7.4121c-1.289-11.816-3.7597-23.901-7.4121-36.254zm0-175.313v-4.351c6.6602-2.47 15.7372-3.867 27.2312-4.189-9.131-7.734-15.9519-15.845-20.4636-24.331s-6.7676-17.349-6.7676-26.587c0-10.527 2.2022-19.121 6.6065-25.781 4.4043-6.768 9.8287-11.118 16.2747-13.052 6.338-1.934 15.63-2.9 27.876-2.9h41.25c15.254 0 24.546-.269 27.876-.806s5.854-2.202 7.573-4.9951c1.611-2.9004 2.417-8.1641 2.417-15.7911h7.412v67.5142h-7.412v-3.061c0-7.734-1.128-12.783-3.384-15.147-2.256-2.363-4.888-3.706-7.895-4.028-3.008-.322-11.871-.483-26.587-.483h-42.539c-10.42 0-17.832.537-22.237 1.611-4.511.967-8.486 3.706-11.924 8.218-3.4371 4.404-5.1558 10.044-5.1558 16.919 0 7.842 2.3633 15.361 7.0898 22.558 4.619 7.09 11.602 13.804 20.947 20.142h53.819c15.254 0 24.546-.269 27.876-.806 3.33-.644 5.854-2.363 7.573-5.156 1.611-2.9 2.417-8.218 2.417-15.952h7.412v66.709h-7.412c0-7.412-.752-12.568-2.256-15.469-1.504-2.9-3.76-4.673-6.768-5.317-3.115-.752-12.729-1.128-28.842-1.128h-39.317c-15.361 0-24.653.322-27.876.967-3.33.537-5.801 2.256-7.412 5.156-1.719 2.793-2.578 8.057-2.578 15.791h-7.4121c-1.289-11.816-3.7597-23.901-7.4121-36.255zm-67.3535-151.9482c-4.6191 0-8.59376-1.6113-11.92383-4.834-3.33008-3.3301-4.995121-7.3047-4.995121-11.9238-.000001-4.6191 1.665041-8.54 4.995121-11.7627 3.33007-3.2227 7.30473-4.834 11.92383-4.834 4.7266 0 8.7549 1.6113 12.085 4.834 3.33 3.2227 4.9951 7.1436 4.9951 11.7627s-1.6651 8.5937-4.9951 11.9238c-3.3301 3.2227-7.3584 4.834-12.085 4.834zm67.3535-31.0986h92.0072c14.072 0 22.934-.2149 26.587-.6446 3.652-.4297 6.445-1.9873 8.378-4.6728 1.934-2.6856 2.901-7.4658 2.901-14.34084v-3.383785h7.412v71.059525h-7.412v-5.4785c0-7.6269-1.074-12.5683-3.223-14.8242-2.256-2.3633-4.887-3.706-7.895-4.0283-3.116-.4297-12.032-.6445-26.748-.6445h-39.961c-15.469 0-24.922.7519-28.36 2.2558-3.437 1.3965-5.586 3.3301-6.445 5.8008-.859 2.3633-1.289 6.5527-1.289 12.5684v4.3506h-7.4121c-1.9336-19.1211-4.7803-33.9454-8.5401-44.4727z" fill="#15d5ff"/></svg>

<svg width="304" height="810" viewBox="0 0 304 810" fill="none" xmlns="http://www.w3.org/2000/svg">
<g style="mix-blend-mode:multiply">
<path d="M101.634 705.885C91.3213 696.754 86.165 687.516 86.165 678.17C86.165 673.014 87.5615 669.039 90.3545 666.246C93.1475 663.346 96.209 661.896 99.5391 661.896C106.629 661.896 110.174 665.118 110.174 671.563C110.174 675.108 107.972 678.17 103.567 680.748C99.4853 683.111 97.4443 685.582 97.4443 688.16C97.4443 692.242 100.237 696.754 105.823 701.695C114.632 696.109 123.978 693.316 133.86 693.316C146.751 693.316 158.138 697.936 168.021 707.174C178.011 716.412 183.382 731.988 184.134 753.902C184.886 776.676 189.505 788.062 197.991 788.062C201.966 788.062 204.759 785.484 206.37 780.328C208.089 775.279 209.378 764.645 210.237 748.424C211.097 730.699 212.762 717.057 215.232 707.496C217.596 697.936 222.43 690.309 229.734 684.615C237.039 678.922 245.74 676.075 255.838 676.075C270.018 676.075 281.458 681.876 290.159 693.478C298.86 705.079 303.211 721.783 303.211 743.59C303.211 763.57 299.344 779.576 291.609 791.607C283.875 803.639 274.1 809.654 262.283 809.654C255.73 809.654 250.359 807.936 246.17 804.498C241.98 801.061 239.886 796.173 239.886 789.835C239.886 788.116 240.154 786.559 240.691 785.162C247.996 791.822 255.73 795.152 263.895 795.152C273.348 795.152 281.136 790.748 287.259 781.939C293.489 773.023 296.604 759.757 296.604 742.14C296.604 726.456 293.436 714.264 287.098 705.562C280.867 696.754 272.864 692.35 263.089 692.35C252.347 692.35 244.773 696.271 240.369 704.112C236.072 711.954 233.494 725.919 232.635 746.007C231.668 769.103 228.821 784.088 224.095 790.963C219.476 797.838 213.514 801.275 206.209 801.275C192.137 801.275 183.274 791.446 179.622 771.788C173.606 781.993 166.731 789.674 158.997 794.83C151.263 799.986 142.615 802.564 133.055 802.564C119.627 802.564 108.24 797.301 98.8945 786.773C89.4414 776.139 84.7148 763.57 84.7148 749.068C84.7148 731.129 90.3545 716.734 101.634 705.885ZM136.761 778.395C150.618 778.395 160.77 775.548 167.215 769.854C173.66 764.161 176.883 756.91 176.883 748.102C176.883 739.937 173.714 732.955 167.376 727.154C160.931 721.246 149.812 718.292 134.021 718.292C118.123 718.292 107.166 721.407 101.15 727.638C95.1348 733.868 92.1269 740.904 92.127 748.746C92.127 758.629 95.833 766.041 103.245 770.982C110.657 775.924 121.829 778.395 136.761 778.395ZM17.3613 642.237C12.7422 642.237 8.76757 640.626 5.43749 637.403C2.10741 634.073 0.442375 630.099 0.442374 625.479C0.442374 620.86 2.10741 616.939 5.43749 613.717C8.76757 610.494 12.7422 608.883 17.3613 608.883C22.0879 608.883 26.1162 610.494 29.4463 613.717C32.7764 616.939 34.4414 620.86 34.4414 625.479C34.4414 630.099 32.7764 634.073 29.4463 637.403C26.1162 640.626 22.0879 642.237 17.3613 642.237ZM84.7148 611.139L176.722 611.139C190.794 611.139 199.656 610.924 203.309 610.494C206.961 610.064 209.754 608.507 211.687 605.821C213.621 603.136 214.588 598.355 214.588 591.48L214.588 588.097L222 588.097L222 659.156L214.588 659.156L214.588 653.678C214.588 646.051 213.514 641.109 211.365 638.854C209.109 636.49 206.478 635.147 203.47 634.825C200.354 634.396 191.438 634.181 176.722 634.181L136.761 634.181C121.292 634.181 111.839 634.933 108.401 636.437C104.964 637.833 102.815 639.767 101.956 642.237C101.097 644.601 100.667 648.79 100.667 654.806L100.667 659.156L93.2549 659.156C91.3213 640.035 88.4746 625.211 84.7148 614.684L84.7148 611.139ZM197.83 436.471L197.83 430.509C216.199 431.476 225.384 440.499 225.384 457.579C225.384 464.884 223.45 470.685 219.583 474.981C215.716 479.171 209.969 481.91 202.342 483.199C209.969 493.941 215.716 503.771 219.583 512.687C223.45 521.495 225.384 529.391 225.384 536.373C225.384 545.289 222.806 552.97 217.649 559.415C212.493 565.86 205.672 569.083 197.186 569.083C186.121 569.083 176.453 563.712 168.182 552.97C159.91 542.12 151.854 527.188 144.012 508.175L133.86 483.199L127.415 483.199C118.284 483.199 111.678 483.79 107.596 484.972C103.514 486.153 99.8613 489.215 96.6387 494.156C93.416 499.098 91.8047 505.597 91.8047 513.653C91.8047 529.767 97.1758 538.736 107.918 540.563C118.875 542.281 124.354 546.793 124.354 554.098C124.354 560.65 121.238 563.927 115.008 563.927C108.885 563.927 102.332 559.576 95.3496 550.875C88.2598 542.174 84.7148 528.639 84.7148 510.27C84.7148 496.627 86.8633 486.046 91.1601 478.526C95.457 471.007 100.345 466.065 105.823 463.702C111.302 461.231 119.681 459.996 130.96 459.996L184.295 459.996C196.756 459.996 204.759 459.352 208.304 458.062C211.849 456.773 213.621 453.98 213.621 449.684C213.621 442.594 208.357 438.189 197.83 436.471ZM141.434 483.199L148.523 500.763C159.803 528.478 173.982 542.335 191.062 542.335C197.83 542.335 203.309 540.562 207.498 537.018C211.58 533.473 213.621 528.854 213.621 523.16C213.621 518.111 211.956 512.257 208.626 505.597C205.296 498.937 200.301 491.471 193.641 483.199L141.434 483.199ZM84.7148 381.686L84.7148 377.335C91.375 374.864 100.452 373.468 111.946 373.146C102.815 365.411 95.9941 357.301 91.4824 348.814C86.9707 340.328 84.7148 331.466 84.7148 322.228C84.7148 311.7 86.917 303.106 91.3213 296.446C95.7256 289.679 101.15 285.328 107.596 283.395C113.934 281.461 123.226 280.494 135.472 280.494L176.722 280.494C191.976 280.494 201.268 280.226 204.598 279.688C207.928 279.151 210.452 277.486 212.171 274.693C213.782 271.793 214.588 266.529 214.588 258.902L222 258.902L222 326.417L214.588 326.417L214.588 323.355C214.588 315.621 213.46 310.572 211.204 308.209C208.948 305.846 206.316 304.503 203.309 304.181C200.301 303.858 191.438 303.697 176.722 303.697L134.183 303.697C123.763 303.697 116.351 304.234 111.946 305.309C107.435 306.275 103.46 309.015 100.022 313.526C96.5849 317.931 94.8662 323.57 94.8662 330.445C94.8662 338.287 97.2295 345.807 101.956 353.004C106.575 360.094 113.558 366.808 122.903 373.146L176.722 373.146C191.976 373.146 201.268 372.877 204.598 372.34C207.928 371.695 210.452 369.977 212.171 367.184C213.782 364.283 214.588 358.966 214.588 351.231L222 351.231L222 417.94L214.588 417.94C214.588 410.528 213.836 405.372 212.332 402.472C210.828 399.571 208.572 397.799 205.564 397.154C202.449 396.402 192.835 396.026 176.722 396.026L137.405 396.026C122.044 396.026 112.752 396.349 109.529 396.993C106.199 397.53 103.728 399.249 102.117 402.149C100.398 404.942 99.539 410.206 99.539 417.94L92.1269 417.94C90.8379 406.124 88.3672 394.039 84.7148 381.686ZM84.7148 206.373L84.7148 202.022C91.375 199.552 100.452 198.155 111.946 197.833C102.815 190.099 95.9941 181.988 91.4824 173.502C86.9707 165.016 84.7148 156.153 84.7148 146.915C84.7148 136.388 86.917 127.794 91.3213 121.134C95.7256 114.366 101.15 110.016 107.596 108.082C113.934 106.148 123.226 105.182 135.472 105.182L176.722 105.182C191.976 105.182 201.268 104.913 204.598 104.376C207.928 103.839 210.452 102.174 212.171 99.3809C213.782 96.4805 214.588 91.2168 214.588 83.5898L222 83.5898L222 151.104L214.588 151.104L214.588 148.043C214.588 140.309 213.46 135.26 211.204 132.896C208.948 130.533 206.316 129.19 203.309 128.868C200.301 128.546 191.438 128.385 176.722 128.385L134.183 128.385C123.763 128.385 116.351 128.922 111.946 129.996C107.435 130.963 103.46 133.702 100.022 138.214C96.5849 142.618 94.8662 148.258 94.8662 155.133C94.8662 162.975 97.2295 170.494 101.956 177.691C106.575 184.781 113.558 191.495 122.903 197.833L176.722 197.833C191.976 197.833 201.268 197.564 204.598 197.027C207.928 196.383 210.452 194.664 212.171 191.871C213.782 188.971 214.588 183.653 214.588 175.919L222 175.919L222 242.628L214.588 242.628C214.588 235.216 213.836 230.06 212.332 227.159C210.828 224.259 208.572 222.486 205.564 221.842C202.449 221.09 192.835 220.714 176.722 220.714L137.405 220.714C122.044 220.714 112.752 221.036 109.529 221.681C106.199 222.218 103.728 223.937 102.117 226.837C100.398 229.63 99.539 234.894 99.539 242.628L92.1269 242.628C90.8379 230.812 88.3672 218.727 84.7148 206.373ZM17.3613 54.4248C12.7422 54.4248 8.76754 52.8135 5.43747 49.5908C2.10739 46.2607 0.442349 42.2861 0.442349 37.667C0.442348 33.0479 2.10739 29.127 5.43747 25.9043C8.76754 22.6816 12.7422 21.0703 17.3613 21.0703C22.0879 21.0703 26.1162 22.6816 29.4463 25.9043C32.7763 29.127 34.4414 33.0479 34.4414 37.667C34.4414 42.2861 32.7763 46.2607 29.4463 49.5908C26.1162 52.8135 22.0879 54.4248 17.3613 54.4248ZM84.7148 23.3262L176.722 23.3262C190.794 23.3262 199.656 23.1113 203.309 22.6816C206.961 22.2519 209.754 20.6943 211.687 18.0088C213.621 15.3232 214.588 10.543 214.588 3.66796L214.588 0.284175L222 0.284175L222 71.3437L214.588 71.3437L214.588 65.8652C214.588 58.2383 213.514 53.2969 211.365 51.041C209.109 48.6777 206.478 47.335 203.47 47.0127C200.354 46.583 191.438 46.3682 176.722 46.3682L136.761 46.3682C121.292 46.3682 111.839 47.1201 108.401 48.624C104.964 50.0205 102.815 51.9541 101.956 54.4248C101.097 56.7881 100.667 60.9775 100.667 66.9932L100.667 71.3438L93.2549 71.3438C91.3213 52.2227 88.4746 37.3984 84.7148 26.8711L84.7148 23.3262Z" fill="#15D5FF"/>
</g>
</svg>
